public/icons/Calendar.svg

<svg fill="none" height="30" viewBox="0 0 30 30" width="30" xmlns="http://www.w3.org/2000/svg"><path d="m6.29226 27h17.41564c2.8148 0 4.1975-1.3827 4.1975-4.1482v-15.70365c0-2.76542-1.3827-4.14815-4.1975-4.14815h-17.41564c-2.79836 0-4.19753 1.38273-4.19753 4.14815v15.70365c0 2.7655 1.39917 4.1482 4.19753 4.1482zm-.23046-2.3868c-1.02056 0-1.59669-.5432-1.59669-1.6132v-12.3786c0-1.06996.57613-1.61316 1.59669-1.61316h17.8601c1.0206 0 1.6132.5432 1.6132 1.61316v12.3786c0 1.07-.5926 1.6132-1.6132 1.6132zm6.4362-10.9465h.7572c.4938 0 .6584-.1646.6584-.642v-.7572c0-.4774-.1646-.642-.6584-.642h-.7572c-.4773 0-.642.1646-.642.642v.7572c0 .4774.1647.642.642.642zm4.2469 0h.7572c.4774 0 .642-.1646.642-.642v-.7572c0-.4774-.1646-.642-.642-.642h-.7572c-.4938 0-.6584.1646-.6584.642v.7572c0 .4774.1646.642.6584.642zm4.2305 0h.7572c.4774 0 .6584-.1646.6584-.642v-.7572c0-.4774-.181-.642-.6584-.642h-.7572c-.4939 0-.6584.1646-.6584.642v.7572c0 .4774.1645.642.6584.642zm-12.70782 4.1646h.7572c.49381 0 .65843-.1646.65843-.642v-.7572c0-.4773-.16462-.642-.65843-.642h-.7572c-.47736 0-.65847.1647-.65847.642v.7572c0 .4774.18111.642.65847.642zm4.23042 0h.7572c.4938 0 .6584-.1646.6584-.642v-.7572c0-.4773-.1646-.642-.6584-.642h-.7572c-.4773 0-.642.1647-.642.642v.7572c0 .4774.1647.642.642.642zm4.2469 0h.7572c.4774 0 .642-.1646.642-.642v-.7572c0-.4773-.1646-.642-.642-.642h-.7572c-.4938 0-.6584.1647-.6584.642v.7572c0 .4774.1646.642.6584.642zm4.2305 0h.7572c.4774 0 .6584-.1646.6584-.642v-.7572c0-.4773-.181-.642-.6584-.642h-.7572c-.4939 0-.6584.1647-.6584.642v.7572c0 .4774.1645.642.6584.642zm-12.70782 4.1646h.7572c.49381 0 .65843-.1646.65843-.642v-.7572c0-.4773-.16462-.642-.65843-.642h-.7572c-.47736 0-.65847.1647-.65847.642v.7572c0 .4774.18111.642.65847.642zm4.23042 0h.7572c.4938 0 .6584-.1646.6584-.642v-.7572c0-.4773-.1646-.642-.6584-.642h-.7572c-.4773 0-.642.1647-.642.642v.7572c0 .4774.1647.642.642.642zm4.2469 0h.7572c.4774 0 .642-.1646.642-.642v-.7572c0-.4773-.1646-.642-.642-.642h-.7572c-.4938 0-.6584.1647-.6584.642v.7572c0 .4774.1646.642.6584.642z" fill="#000"/></svg>

<svg width="30" height="30" viewBox="0 0 30 30" fill="none" xmlns="http://www.w3.org/2000/svg">
<path d="M6.29226 27H23.7079C26.5227 27 27.9054 25.6173 27.9054 22.8518V7.14815C27.9054 4.38273 26.5227 3 23.7079 3H6.29226C3.4939 3 2.09473 4.38273 2.09473 7.14815V22.8518C2.09473 25.6173 3.4939 27 6.29226 27ZM6.0618 24.6132C5.04124 24.6132 4.46511 24.07 4.46511 23V10.6214C4.46511 9.55144 5.04124 9.00824 6.0618 9.00824H23.9219C24.9425 9.00824 25.5351 9.55144 25.5351 10.6214V23C25.5351 24.07 24.9425 24.6132 23.9219 24.6132H6.0618ZM12.498 13.6667H13.2552C13.749 13.6667 13.9136 13.5021 13.9136 13.0247V12.2675C13.9136 11.7901 13.749 11.6255 13.2552 11.6255H12.498C12.0207 11.6255 11.856 11.7901 11.856 12.2675V13.0247C11.856 13.5021 12.0207 13.6667 12.498 13.6667ZM16.7449 13.6667H17.5021C17.9795 13.6667 18.1441 13.5021 18.1441 13.0247V12.2675C18.1441 11.7901 17.9795 11.6255 17.5021 11.6255H16.7449C16.2511 11.6255 16.0865 11.7901 16.0865 12.2675V13.0247C16.0865 13.5021 16.2511 13.6667 16.7449 13.6667ZM20.9754 13.6667H21.7326C22.21 13.6667 22.391 13.5021 22.391 13.0247V12.2675C22.391 11.7901 22.21 11.6255 21.7326 11.6255H20.9754C20.4815 11.6255 20.317 11.7901 20.317 12.2675V13.0247C20.317 13.5021 20.4815 13.6667 20.9754 13.6667ZM8.26758 17.8313H9.02478C9.51859 17.8313 9.68321 17.6667 9.68321 17.1893V16.4321C9.68321 15.9548 9.51859 15.7901 9.02478 15.7901H8.26758C7.79022 15.7901 7.60911 15.9548 7.60911 16.4321V17.1893C7.60911 17.6667 7.79022 17.8313 8.26758 17.8313ZM12.498 17.8313H13.2552C13.749 17.8313 13.9136 17.6667 13.9136 17.1893V16.4321C13.9136 15.9548 13.749 15.7901 13.2552 15.7901H12.498C12.0207 15.7901 11.856 15.9548 11.856 16.4321V17.1893C11.856 17.6667 12.0207 17.8313 12.498 17.8313ZM16.7449 17.8313H17.5021C17.9795 17.8313 18.1441 17.6667 18.1441 17.1893V16.4321C18.1441 15.9548 17.9795 15.7901 17.5021 15.7901H16.7449C16.2511 15.7901 16.0865 15.9548 16.0865 16.4321V17.1893C16.0865 17.6667 16.2511 17.8313 16.7449 17.8313ZM20.9754 17.8313H21.7326C22.21 17.8313 22.391 17.6667 22.391 17.1893V16.4321C22.391 15.9548 22.21 15.7901 21.7326 15.7901H20.9754C20.4815 15.7901 20.317 15.9548 20.317 16.4321V17.1893C20.317 17.6667 20.4815 17.8313 20.9754 17.8313ZM8.26758 21.9959H9.02478C9.51859 21.9959 9.68321 21.8313 9.68321 21.3539V20.5967C9.68321 20.1194 9.51859 19.9547 9.02478 19.9547H8.26758C7.79022 19.9547 7.60911 20.1194 7.60911 20.5967V21.3539C7.60911 21.8313 7.79022 21.9959 8.26758 21.9959ZM12.498 21.9959H13.2552C13.749 21.9959 13.9136 21.8313 13.9136 21.3539V20.5967C13.9136 20.1194 13.749 19.9547 13.2552 19.9547H12.498C12.0207 19.9547 11.856 20.1194 11.856 20.5967V21.3539C11.856 21.8313 12.0207 21.9959 12.498 21.9959ZM16.7449 21.9959H17.5021C17.9795 21.9959 18.1441 21.8313 18.1441 21.3539V20.5967C18.1441 20.1194 17.9795 19.9547 17.5021 19.9547H16.7449C16.2511 19.9547 16.0865 20.1194 16.0865 20.5967V21.3539C16.0865 21.8313 16.2511 21.9959 16.7449 21.9959Z" fill="black"/>
</svg>
